static/images/mobile/copyright/wikiversity-wordmark-pt.svg

<?xml version="1.0" encoding="UTF-8"?>
<svg xmlns="http://www.w3.org/2000/svg" width="140" height="12" viewBox="0 0 140 12">
	<title>
		pt-wordmark
	</title>
	<g id="Page-1" fill="none" fill-rule="evenodd" stroke="none" stroke-width="1">
		<path id="pt-wordmark" fill="#666" fill-rule="nonzero" d="M3.18594863,0.209437918 L5.90461032,6.57549838 L8.85967904,0.209437918 L11.2068474,0.209437918 L14.094372,6.57549838 L16.8299211,0.209437918 L19.8694194,0.209437918 L14.786702,11.8777354 L13.5540157,11.8777354 L10.0079339,4.36341824 L6.44496663,11.8777354 L5.21228027,11.8777354 L0.146448444,0.209437918 L3.18594863,0.209437918 Z M45.2988144,0.209437918 L48.3383128,6.77813245 L51.2258376,0.209437918 L54.3159947,0.209437918 L48.9968717,11.8777354 L47.7472998,11.8777354 L42.1748864,0.209437918 L45.2988144,0.209437918 Z M80.9594797,0.0574623658 C81.8713293,0.0574623658 83.0195844,0.158779401 84.8601701,0.952426489 L84.8601701,0.952426489 L84.8601701,3.31648037 C84.0665228,2.92809961 82.631204,2.20199842 81.162113,2.20199842 C79.4735025,2.20199842 79.4228442,3.02941665 79.4228442,3.14761925 C79.4228442,3.83994931 80.5542131,4.24521564 82.2090514,4.83623047 C83.6612563,5.3596994 85.383639,6.23777614 85.383639,8.46674185 C85.383639,11.1347468 82.5974318,11.8777354 80.8750491,11.8777354 C78.9331471,11.8777354 77.0925618,10.9658857 76.8054979,10.7632535 L76.8054979,10.7632535 L76.8054979,8.28099516 C77.8017781,8.90578113 79.1188943,9.71631379 80.8075046,9.71631379 C81.1789989,9.71631379 82.5298874,9.69942822 82.5298874,8.66937592 C82.5298874,7.90950178 81.8713293,7.67309477 80.35158,7.14962583 C78.6967417,6.57549838 76.6028647,5.76496573 76.6028647,3.33336594 C76.6028647,1.57721246 78.0719557,0.0574623658 80.9594797,0.0574623658 Z M23.8741896,0.209437918 L23.8741896,11.7257599 L20.9697794,11.7257599 L20.9697794,0.209437918 L23.8741896,0.209437918 Z M29.1158693,0.209437918 L29.1158693,5.42724348 L32.7801554,0.209437918 L35.9378564,0.209437918 L32.1891406,5.61299017 L37.2887454,11.7257599 L33.6920051,11.7257599 L29.1158693,6.32220761 L29.1158693,11.7257599 L26.2283464,11.7257599 L26.2283464,0.209437918 L29.1158693,0.209437918 Z M41.087187,0.209437918 L41.087187,11.7257599 L38.1827768,11.7257599 L38.1827768,0.209437918 L41.087187,0.209437918 Z M63.7712855,0.209437918 L63.7712855,2.35397217 L58.3001876,2.35397217 L58.3001876,4.68425491 L63.5179939,4.68425491 L63.5179939,6.84567654 L58.3001876,6.84567654 L58.3001876,9.61499675 L63.8894881,9.61499675 L63.8894881,11.7257599 L55.3957776,11.7257599 L55.3957776,0.209437918 L63.7712855,0.209437918 Z M70.3063337,0.209437918 C71.3532721,0.209437918 72.4002107,0.209437918 73.3289463,0.783565368 C73.9368462,1.1888317 74.8318098,2.13445253 74.8318098,3.50222706 C74.8318098,5.42724348 73.3458324,6.10268797 72.8561356,6.33909318 C73.6835545,6.7443595 74.2576821,7.90950178 74.5109736,8.5005148 C74.8318098,9.15907191 75.3215067,10.2397827 75.6254567,10.8983416 L75.6254567,10.8983416 L76.0138371,11.7257599 L72.8561356,11.7257599 C72.6028439,11.2191783 71.6065638,8.93955408 71.3701582,8.48362923 C70.5933974,7.03142323 70.01927,7.03142323 69.208737,7.03142323 L69.208737,7.03142323 L68.7865843,7.03142323 L68.7865843,11.7257599 L65.8821743,11.7257599 L65.8821743,0.209437918 Z M89.871343,0.209437918 L89.871343,11.7257599 L86.9669328,11.7257599 L86.9669328,0.209437918 L89.871343,0.209437918 Z M96.9367184,0.209437918 C97.679707,0.209437918 98.7435322,0.209437918 100.060648,0.665362764 C100.972498,0.986197627 103.741818,2.38774511 103.741818,5.95071242 C103.741818,7.09896732 103.454754,9.49679415 100.938725,10.8645687 C99.8411286,11.4555835 98.7266467,11.7257599 96.7171988,11.7257599 L96.7171988,11.7257599 L92.2423818,11.7257599 L92.2423818,0.209437918 Z M111.544119,0.209437918 L116.660608,11.7257599 L113.570451,11.7257599 L112.62483,9.44613563 L107.474568,9.44613563 L106.613375,11.7257599 L103.573877,11.7257599 L108.217557,0.209437918 L111.544119,0.209437918 Z M122.493824,0.209437918 C123.236812,0.209437918 124.300637,0.209437918 125.617754,0.665362764 C126.529603,0.986197627 129.298923,2.38774511 129.298923,5.95071242 C129.298923,7.09896732 129.01186,9.49679415 126.49583,10.8645687 C125.398234,11.4555835 124.28375,11.7257599 122.274304,11.7257599 L122.274304,11.7257599 L117.799487,11.7257599 L117.799487,0.209437918 Z M139.497727,0.209437918 L139.497727,2.35397217 L134.026629,2.35397217 L134.026629,4.68425491 L139.244437,4.68425491 L139.244437,6.84567654 L134.026629,6.84567654 L134.026629,9.61499675 L139.61593,9.61499675 L139.61593,11.7257599 L131.122221,11.7257599 L131.122221,0.209437918 L139.497727,0.209437918 Z M96.855554,2.40504762 L95.146792,2.40463068 L95.146792,9.5305671 L96.3119325,9.5305671 C97.7472512,9.5305671 98.2633298,9.42242172 98.6947425,9.25451049 L98.8448493,9.19284486 C100.00999,8.68626149 100.769864,7.57177954 100.769864,5.93382685 C100.769864,4.68425491 100.313939,3.31648037 98.8279619,2.70857998 C98.0849733,2.40463068 97.3757577,2.40463068 96.5989962,2.40463068 Z M122.412659,2.40504762 L120.703897,2.40463068 L120.703897,9.5305671 L121.869038,9.5305671 C123.304356,9.5305671 123.820435,9.42242172 124.251846,9.25451049 L124.401953,9.19284486 C125.567095,8.68626149 126.326969,7.57177954 126.326969,5.93382685 C126.326969,4.68425491 125.871044,3.31648037 124.385067,2.70857998 C123.642079,2.40463068 122.932863,2.40463068 122.156101,2.40463068 Z M109.923052,2.97875813 L108.234443,7.43668956 L111.780524,7.43668956 L109.923052,2.97875813 Z M70.2859113,2.3034219 L68.7865843,2.30331365 L68.7865843,4.9375475 L69.9854978,4.9375475 C70.7284863,4.90377455 70.9142334,4.90377455 71.2181834,4.73491343 C71.640336,4.51539379 71.8429692,4.09324189 71.8429692,3.62042967 C71.8429692,2.30331365 70.5596252,2.30331365 70.2387893,2.30331365 Z"/>
	</g>
</svg>

<svg xmlns="http://www.w3.org/2000/svg" width="140" height="12"><path fill="#666" fill-rule="nonzero" d="m3.186.21 2.719 6.365L8.86.21h2.347l2.887 6.366L16.83.21h3.04l-5.083 11.669h-1.233l-3.546-7.515-3.563 7.515H5.212L.146.209h3.04zm42.113 0 3.04 6.568L51.225.21h3.09l-5.32 11.669h-1.249L42.175.209h3.124zm35.66-.153c.912 0 2.06.102 3.901.895v2.364c-.793-.388-2.229-1.114-3.698-1.114-1.688 0-1.74.827-1.74.946 0 .692 1.132 1.097 2.787 1.688 1.452.524 3.175 1.402 3.175 3.63 0 2.669-2.787 3.412-4.509 3.412-1.942 0-3.782-.912-4.07-1.115V8.281c.997.625 2.314 1.435 4.003 1.435.371 0 1.722-.017 1.722-1.047 0-.76-.659-.996-2.178-1.52-1.655-.574-3.75-1.384-3.75-3.816 0-1.756 1.47-3.276 4.357-3.276zM23.874.21v11.517H20.97V.209h2.904zm5.242 0v5.218L32.78.21h3.158l-3.749 5.404 5.1 6.113h-3.597l-4.576-5.404v5.404h-2.888V.209h2.888zm11.971 0v11.517h-2.904V.209h2.904zm22.684 0v2.145h-5.47v2.33h5.217v2.162H58.3v2.769h5.59v2.11h-8.494V.21h8.375zm6.535 0c1.047 0 2.094 0 3.023.575.608.405 1.503 1.35 1.503 2.718 0 1.925-1.486 2.6-1.976 2.837.828.405 1.402 1.57 1.655 2.162.32.658.81 1.739 1.114 2.397l.389.828h-3.158c-.253-.507-1.25-2.786-1.486-3.242-.777-1.453-1.35-1.453-2.161-1.453h-.422v4.695h-2.905V.209zm19.565 0v11.517h-2.904V.209h2.904zm7.066 0c.743 0 1.807 0 3.124.456.911.321 3.68 1.723 3.68 5.286 0 1.148-.286 3.546-2.802 4.914-1.098.59-2.212.86-4.222.86h-4.475V.21zm14.607 0 5.117 11.517h-3.09l-.946-2.28h-5.15l-.862 2.28h-3.04L108.219.209h3.326zm10.95 0c.743 0 1.807 0 3.124.456.912.321 3.68 1.723 3.68 5.286 0 1.148-.286 3.546-2.802 4.914-1.098.59-2.212.86-4.222.86H117.8V.21zm17.004 0v2.145h-5.471v2.33h5.217v2.162h-5.217v2.769h5.589v2.11h-8.494V.21h8.376zM96.856 2.405h-1.71V9.53h1.166c1.435 0 1.951-.109 2.383-.276l.15-.062c1.165-.507 1.925-1.621 1.925-3.26 0-1.249-.456-2.617-1.942-3.224-.743-.304-1.452-.304-2.229-.304zm25.557 0h-1.71V9.53h1.166c1.435 0 1.951-.109 2.383-.276l.15-.062c1.165-.507 1.925-1.621 1.925-3.26 0-1.249-.456-2.617-1.942-3.224-.743-.304-1.452-.304-2.229-.304zm-12.49.574-1.689 4.458h3.547l-1.858-4.458zm-39.637-.676h-1.5v2.635h1.2c.742-.034.928-.034 1.232-.203.422-.22.625-.642.625-1.115 0-1.317-1.283-1.317-1.604-1.317z"/></svg>
